X:1
T:[ID 6-21b]
T:[ID 6-21b]
T:Bezeichnung standardisiert: Tantz Tantz 6.
T:Urheber unbekannt Datum in der hier transkribierten schriftlichen Quelle: 1775
C:Urheber unbekannt
C:Datum in der hier transkribierten schriftlichen Quelle: 1775
L:1/8
M:2/4
K:D
V:1 treble 
V:1
 F2 E2 | FdAF | F2 E2 | F3 F | GB/A/ BG | DF/E/ FD | e2 d2 | c4 :: F2 D2 | G/G/A/ BG | ^G2 E2 | %11
 EE/F/ AC | f2 e2 | dd/e/ fF | G(3G/A/B/ G(3G/A/B/ | BA/G/ FE | D2 E2 | F4 :| %18

